public/images/broadcasters/cybc.svg

<svg clip-rule="evenodd" fill-rule="evenodd" stroke-linejoin="round" stroke-miterlimit="2" viewBox="0 0 103 56" xmlns="http://www.w3.org/2000/svg"><g fill="#fff" fill-rule="nonzero"><path d="m15.76 2.05v.73c-3.261 2.816-5.138 6.917-5.138 11.225s1.877 8.409 5.138 11.225v25.77c.017 2.084-1.676 3.817-3.76 3.85h-7.19c-2.092-.005-3.81-1.728-3.81-3.82 0-.01 0-.02 0-.03v-49z"/><path d="m40.06 2.05h14.76v48.95.04c0 2.09-1.72 3.81-3.81 3.81-.003 0-.007 0-.01 0h-7.13c-2.09 0-3.81-1.72-3.81-3.81 0-.013 0-.027 0-.04v-49z"/><path d="m100.56 50c.267.487.407 1.034.407 1.59 0 1.816-1.494 3.31-3.31 3.31-.002 0-.005 0-.007 0h-9.91c-1.239.003-2.379-.695-2.94-1.8l-11.62-22.61v20.51c-.005 2.088-1.722 3.805-3.81 3.81h-7.14c-2.088-.005-3.805-1.722-3.81-3.81v-49h14.76v21.53l11-21.48h17.52l-11.94 21.75-1 1.89-.76 1.31.71 1.33.76 1.38.28.53z"/><path d="m38.77 14c.005 1.615-.297 3.217-.89 4.72-1.945 4.975-6.766 8.267-12.108 8.267-7.131 0-13-5.869-13-13 0-7.132 5.869-13 13-13 5.576 0 10.558 3.586 12.328 8.873.443 1.335.669 2.733.67 4.14z"/></g></svg>

<?xml version="1.0" encoding="UTF-8" standalone="no"?>
<!DOCTYPE svg PUBLIC "-//W3C//DTD SVG 1.1//EN" "http://www.w3.org/Graphics/SVG/1.1/DTD/svg11.dtd">
<svg width="100%" height="100%" viewBox="0 0 103 56" version="1.1" xmlns="http://www.w3.org/2000/svg" xmlns:xlink="http://www.w3.org/1999/xlink" xml:space="preserve" xmlns:serif="http://www.serif.com/" style="fill-rule:evenodd;clip-rule:evenodd;stroke-linejoin:round;stroke-miterlimit:2;">
    <path d="M15.76,2.05L15.76,2.78C12.499,5.596 10.622,9.697 10.622,14.005C10.622,18.313 12.499,22.414 15.76,25.23L15.76,51C15.777,53.084 14.084,54.817 12,54.85L4.81,54.85C2.718,54.845 1,53.122 1,51.03C1,51.02 1,51.01 1,51L1,2L15.76,2.05Z" style="fill:white;fill-rule:nonzero;"/>
    <path d="M40.06,2.05L54.82,2.05L54.82,51C54.82,51.013 54.82,51.027 54.82,51.04C54.82,53.13 53.1,54.85 51.01,54.85C51.007,54.85 51.003,54.85 51,54.85C51,54.85 43.87,54.85 43.87,54.85C41.78,54.85 40.06,53.13 40.06,51.04C40.06,51.027 40.06,51.013 40.06,51L40.06,2L40.06,2.05Z" style="fill:white;fill-rule:nonzero;"/>
    <path d="M100.56,50C100.827,50.487 100.967,51.034 100.967,51.59C100.967,53.406 99.473,54.9 97.657,54.9C97.655,54.9 97.652,54.9 97.65,54.9L87.74,54.9C86.501,54.903 85.361,54.205 84.8,53.1L73.18,30.49L73.18,51C73.175,53.088 71.458,54.805 69.37,54.81L62.23,54.81C60.142,54.805 58.425,53.088 58.42,51L58.42,2L73.18,2L73.18,23.53L84.18,2.05L101.7,2.05L89.76,23.8L88.76,25.69L88,27L88.71,28.33L89.47,29.71L89.75,30.24L100.56,50Z" style="fill:white;fill-rule:nonzero;"/>
    <path d="M38.77,14C38.775,15.615 38.473,17.217 37.88,18.72C35.935,23.695 31.114,26.987 25.772,26.987C18.641,26.987 12.772,21.118 12.772,13.987C12.772,6.855 18.641,0.987 25.772,0.987C31.348,0.987 36.33,4.573 38.1,9.86C38.543,11.195 38.769,12.593 38.77,14Z" style="fill:white;fill-rule:nonzero;"/>
</svg>
